material/.icons/material/reorder-vertical.svg

<svg xmlns="http://www.w3.org/2000/svg" viewBox="0 0 24 24"><path d="M9 3v18h2V3H9M5 3v18h2V3H5m8 0v18h2V3h-2m6 0h-2v18h2V3z"/></svg>

<?xml version="1.0" encoding="UTF-8"?><!DOCTYPE svg PUBLIC "-//W3C//DTD SVG 1.1//EN" "http://www.w3.org/Graphics/SVG/1.1/DTD/svg11.dtd"><svg xmlns="http://www.w3.org/2000/svg" xmlns:xlink="http://www.w3.org/1999/xlink" version="1.1" id="mdi-reorder-vertical" width="24" height="24" viewBox="0 0 24 24"><path d="M9,3V21H11V3H9M5,3V21H7V3H5M13,3V21H15V3H13M19,3H17V21H19V3Z" /></svg>
